assets/img/tecnologias/react.svg

<svg viewBox="0 0 24 24"><circle cx="12" cy="11.999" r="2.147" fill="#53C1DE"/><path fill="#53C1DE" d="M4.514 15.801c.211.07.422.141.638.202-.07.281-.131.558-.188.844-.492 2.602-.108 4.664 1.12 5.372 1.266.731 3.394-.019 5.466-1.833.164-.145.328-.295.492-.455.206.202.422.394.637.581 2.006 1.725 3.989 2.423 5.213 1.716 1.266-.731 1.678-2.948 1.144-5.648a18.477 18.477 0 00-.141-.633c.15-.042.295-.089.441-.136 2.705-.895 4.664-2.344 4.664-3.83 0-1.42-1.847-2.798-4.397-3.675v-.001a24.589 24.589 0 00-.759-.239c.042-.173.08-.347.117-.52.577-2.794.197-5.038-1.083-5.779-1.233-.708-3.244.028-5.278 1.8-.202.173-.398.356-.586.539a14.702 14.702 0 00-.389-.361C9.492 1.851 7.355 1.054 6.075 1.8c-1.228.713-1.594 2.827-1.078 5.469.052.263.108.52.173.783-.3.084-.595.178-.872.277C1.795 9.196 0 10.565 0 11.981c0 1.463 1.912 2.929 4.514 3.82zm6.375 3.819a8.585 8.585 0 01-2.644 1.655c-.52.248-1.12.272-1.655.061-.745-.431-1.055-2.086-.633-4.313.052-.262.108-.525.173-.783 1.05.225 2.109.38 3.183.459a24.606 24.606 0 002.025 2.503c-.15.145-.3.286-.45.417l.001.001zm5.953-8.802a36.56 36.56 0 00-.68-1.228c-.23-.398-.469-.792-.717-1.181.755.094 1.477.22 2.152.375a20.737 20.737 0 01-.755 2.034zm.009 2.334c.3.68.563 1.369.792 2.077-.727.164-1.462.291-2.203.375a32.717 32.717 0 001.411-2.452zm-.542-1.166a31.495 31.495 0 01-2.146 3.74c-.698.052-1.425.075-2.161.075s-1.448-.023-2.137-.066a28.48 28.48 0 01-2.161-3.731h-.002a28.24 28.24 0 012.147-3.726 29.151 29.151 0 014.304 0c.398.591.778 1.195 1.139 1.814a32.18 32.18 0 011.017 1.894zM7.832 9.599c-.23.398-.455.805-.666 1.218a22.302 22.302 0 01-.75-2.043c.675-.15 1.392-.272 2.137-.366-.247.389-.491.787-.721 1.191zm-.665 3.59c.216.413.436.821.67 1.224.239.408.483.816.741 1.214a21.23 21.23 0 01-2.175-.352c.206-.675.464-1.373.764-2.086zm4.871 5.291a21.873 21.873 0 01-1.42-1.701 32.91 32.91 0 002.808-.005 19.942 19.942 0 01-1.388 1.706zm6.127 1.408a2.086 2.086 0 01-.774 1.466c-.745.431-2.334-.131-4.05-1.603a20.163 20.163 0 01-.595-.539 23.21 23.21 0 001.978-2.512 23.126 23.126 0 003.197-.492c.047.192.089.384.127.572a8.54 8.54 0 01.117 3.108zm.407-10.856c.244.07.478.145.703.22 2.184.75 3.717 1.866 3.717 2.719 0 .919-1.636 2.105-3.975 2.878-.131.042-.262.084-.398.122a23.84 23.84 0 00-1.195-2.991c.45-.956.83-1.941 1.148-2.948zM13.26 4.326c1.745-1.518 3.371-2.113 4.112-1.687.792.455 1.097 2.292.6 4.706a7.988 7.988 0 01-.108.469 24.1 24.1 0 00-3.155-.497 23.536 23.536 0 00-1.997-2.49c.183-.173.361-.337.548-.501zm-1.25 1.219c.492.534.956 1.096 1.387 1.677a30.883 30.883 0 00-2.789 0c.459-.604.933-1.166 1.402-1.677zM6.572 2.672c.788-.459 2.536.197 4.378 1.828.117.103.234.216.356.328a23.643 23.643 0 00-2.011 2.488 24.72 24.72 0 00-3.15.488c-.061-.239-.112-.483-.164-.727-.441-2.269-.15-3.979.591-4.405zM4.627 9.28c.267-.094.539-.178.811-.258a24.986 24.986 0 001.148 2.981c-.45.98-.839 1.992-1.162 3.023l-.001.001a11.205 11.205 0 01-.581-.183c-.998-.314-2.133-.811-2.953-1.462a2.103 2.103 0 01-.881-1.402c0-.858 1.481-1.955 3.619-2.7z"/></svg>

<svg xmlns="http://www.w3.org/2000/svg" enable-background="new 0 0 24 24" viewBox="0 0 24 24"><circle cx="12" cy="11.999" r="2.147" fill="#53C1DE"/><path fill="#53C1DE" d="M4.514,15.801c0.211,0.07,0.422,0.141,0.638,0.202c-0.07,0.281-0.131,0.558-0.188,0.844c-0.492,2.602-0.108,4.664,1.12,5.372c1.266,0.731,3.394-0.019,5.466-1.833c0.164-0.145,0.328-0.295,0.492-0.455c0.206,0.202,0.422,0.394,0.637,0.581c2.006,1.725,3.989,2.423,5.213,1.716c1.266-0.731,1.678-2.948,1.144-5.648c-0.042-0.206-0.089-0.417-0.141-0.633c0.15-0.042,0.295-0.089,0.441-0.136C22.041,14.916,24,13.467,24,11.981c0-1.42-1.847-2.798-4.397-3.675V8.305c-0.253-0.084-0.506-0.164-0.759-0.239c0.042-0.173,0.08-0.347,0.117-0.52c0.577-2.794,0.197-5.038-1.083-5.779c-1.233-0.708-3.244,0.028-5.278,1.8c-0.202,0.173-0.398,0.356-0.586,0.539c-0.127-0.122-0.258-0.244-0.389-0.361C9.492,1.851,7.355,1.054,6.075,1.8C4.847,2.513,4.481,4.627,4.997,7.269c0.052,0.263,0.108,0.52,0.173,0.783C4.87,8.136,4.575,8.23,4.298,8.329C1.795,9.196,0,10.565,0,11.981C0,13.444,1.912,14.91,4.514,15.801z M10.889,19.62c-0.773,0.708-1.669,1.27-2.644,1.655c-0.52,0.248-1.12,0.272-1.655,0.061c-0.745-0.431-1.055-2.086-0.633-4.313c0.052-0.262,0.108-0.525,0.173-0.783c1.05,0.225,2.109,0.38,3.183,0.459c0.619,0.877,1.298,1.716,2.025,2.503c-0.15,0.145-0.3,0.286-0.45,0.417L10.889,19.62z M16.842,10.818c-0.22-0.413-0.445-0.825-0.68-1.228c-0.23-0.398-0.469-0.792-0.717-1.181c0.755,0.094,1.477,0.22,2.152,0.375C17.381,9.478,17.128,10.153,16.842,10.818z M16.851,13.152c0.3,0.68,0.563,1.369,0.792,2.077c-0.727,0.164-1.462,0.291-2.203,0.375c0.253-0.394,0.492-0.797,0.727-1.2C16.406,13.991,16.631,13.574,16.851,13.152z M16.309,11.986c-0.314,0.647-0.652,1.284-1.012,1.912c-0.356,0.623-0.736,1.228-1.134,1.828c-0.698,0.052-1.425,0.075-2.161,0.075c-0.736,0-1.448-0.023-2.137-0.066c-0.408-0.595-0.792-1.205-1.153-1.828c-0.361-0.623-0.694-1.256-1.008-1.903H7.702c0.309-0.647,0.647-1.28,1.003-1.903c0.356-0.623,0.741-1.228,1.144-1.823c0.703-0.052,1.42-0.08,2.152-0.08s1.453,0.028,2.152,0.08c0.398,0.591,0.778,1.195,1.139,1.814C15.653,10.711,15.99,11.344,16.309,11.986z M7.832,9.599c-0.23,0.398-0.455,0.805-0.666,1.218c-0.295-0.698-0.544-1.382-0.75-2.043c0.675-0.15,1.392-0.272,2.137-0.366C8.306,8.797,8.062,9.195,7.832,9.599z M7.167,13.189L7.167,13.189c0.216,0.413,0.436,0.821,0.67,1.224c0.239,0.408,0.483,0.816,0.741,1.214c-0.731-0.08-1.458-0.197-2.175-0.352C6.609,14.6,6.867,13.902,7.167,13.189z M12.038,18.48L12.038,18.48c-0.478-0.515-0.956-1.086-1.42-1.701c0.45,0.019,0.914,0.028,1.383,0.028c0.483,0,0.956-0.009,1.425-0.033C12.995,17.369,12.531,17.937,12.038,18.48z M18.165,19.888L18.165,19.888c-0.043,0.571-0.324,1.105-0.774,1.466c-0.745,0.431-2.334-0.131-4.05-1.603c-0.197-0.169-0.394-0.352-0.595-0.539c0.717-0.792,1.378-1.631,1.978-2.512c1.073-0.089,2.142-0.253,3.197-0.492c0.047,0.192,0.089,0.384,0.127,0.572C18.278,17.793,18.315,18.847,18.165,19.888z M18.572,9.032c0.244,0.07,0.478,0.145,0.703,0.22c2.184,0.75,3.717,1.866,3.717,2.719c0,0.919-1.636,2.105-3.975,2.878c-0.131,0.042-0.262,0.084-0.398,0.122c-0.328-1.022-0.731-2.02-1.195-2.991C17.874,11.024,18.254,10.039,18.572,9.032z M13.26,4.326L13.26,4.326c1.745-1.518,3.371-2.113,4.112-1.687c0.792,0.455,1.097,2.292,0.6,4.706c-0.033,0.159-0.066,0.314-0.108,0.469c-1.041-0.234-2.095-0.403-3.155-0.497C14.1,6.444,13.434,5.61,12.712,4.827C12.895,4.654,13.073,4.49,13.26,4.326z M12.01,5.545c0.492,0.534,0.956,1.096,1.387,1.677c-0.928-0.042-1.861-0.042-2.789,0C11.067,6.618,11.541,6.056,12.01,5.545z M6.572,2.672C7.36,2.213,9.108,2.869,10.95,4.5c0.117,0.103,0.234,0.216,0.356,0.328C10.579,5.61,9.909,6.444,9.295,7.316C8.236,7.41,7.186,7.574,6.145,7.804C6.084,7.565,6.033,7.321,5.981,7.077C5.54,4.808,5.831,3.098,6.572,2.672z M4.627,9.28c0.267-0.094,0.539-0.178,0.811-0.258c0.319,1.017,0.703,2.016,1.148,2.981c-0.45,0.98-0.839,1.992-1.162,3.023l-0.001,0.001c-0.197-0.056-0.389-0.117-0.581-0.183c-0.998-0.314-2.133-0.811-2.953-1.462c-0.473-0.328-0.792-0.834-0.881-1.402C1.008,11.122,2.489,10.025,4.627,9.28z"/></svg>
